projgeom/figs/euclidean1D.svg

<?xml version="1.0" encoding="iso-8859-1" standalone="no"?> 
<?xml-stylesheet href="TE_export636340846059457774.css" type="text/css"?> 
<svg xmlns="http://www.w3.org/2000/svg" xmlns:xlink="http://www.w3.org/1999/xlink" width="205.25966pt" height="160.17207pt" viewBox="-85.55823 -63.23293 205.25966 160.17207 "> 
<g transform="translate(0, 96.93915 ) scale(1,-1) translate(0,63.23293 )"> 
                          <g> 
 <g stroke="rgb(0.0%,0.0%,0.0%)"> 
 <g fill="rgb(0.0%,0.0%,0.0%)"> 
 <g stroke-width="0.4pt"> 
 <g> 
 <g stroke-linecap="round"> 
 <g stroke-linejoin="round"> 
 <g> 
 <g stroke="rgb(75.0%,75.0%,75.0%)"> 
 <g fill="rgb(75.0%,75.0%,75.0%)"> 
 <path d=" M  -85.35823 -56.90549 M  -85.35823 -56.90546 L  119.50143 -56.90546 M  -85.35823 -42.6791 L  119.50143 -42.6791 M  -85.35823 -28.45273 L  119.50143 -28.45273 M  -85.35823 -14.22636 L  119.50143 -14.22636 M  -85.35823 0.0 L  119.50143 0.0 M  -85.35823 14.22636 L  119.50143 14.22636 M  -85.35823 28.45273 L  119.50143 28.45273 M  -85.35823 42.6791 L  119.50143 42.6791 M  -85.35823 56.90546 L  119.50143 56.90546 M  -85.35823 71.13182 L  119.50143 71.13182 M  -85.35823 85.35818 L  119.50143 85.35818 M  -85.35818 -56.90549 L  -85.35818 96.73915 M  -71.13182 -56.90549 L  -71.13182 96.73915 M  -56.90546 -56.90549 L  -56.90546 96.73915 M  -42.6791 -56.90549 L  -42.6791 96.73915 M  -28.45273 -56.90549 L  -28.45273 96.73915 M  -14.22636 -56.90549 L  -14.22636 96.73915 M  0.0 -56.90549 L  0.0 96.73915 M  14.22636 -56.90549 L  14.22636 96.73915 M  28.45273 -56.90549 L  28.45273 96.73915 M  42.6791 -56.90549 L  42.6791 96.73915 M  56.90546 -56.90549 L  56.90546 96.73915 M  71.13182 -56.90549 L  71.13182 96.73915 M  85.35818 -56.90549 L  85.35818 96.73915 M  99.58455 -56.90549 L  99.58455 96.73915 M  113.81091 -56.90549 L  113.81091 96.73915  " style="fill:none"/> 
 </g> 
 </g> 
 </g> 
 <g> 
 <g stroke="rgb(0.0%,0.0%,0.0%)"> 
 <g fill="rgb(0.0%,0.0%,0.0%)"> 
 <path d=" M  -85.35823 0.0 L  118.68947 0.0  " style="fill:none"/> 
 <g> 
 <g transform="matrix(1.0,0.0,0.0,1.0,118.68947,0.0)"> 
 <g> 
 <g stroke-dasharray="none" stroke-dashoffset="0.0pt"> 
 <g stroke-linejoin="miter"> 
 <path d=" M  -5.22293 2.34435 L  0.29999 0.0 L  -5.22293 -2.34435 Z  " /> 
 </g> 
 </g> 
 </g> 
 </g> 
 </g> 
 </g> 
 </g> 
 </g> 
 <g> 
 <g stroke="rgb(0.0%,0.0%,0.0%)"> 
 <g fill="rgb(0.0%,0.0%,0.0%)"> 
 <path d=" M  0.0 -56.90549 L  0.0 95.92719  " style="fill:none"/> 
 <g> 
 <g transform="matrix(0.0,1.0,-1.0,0.0,0.0,95.92719)"> 
 <g> 
 <g stroke-dasharray="none" stroke-dashoffset="0.0pt"> 
 <g stroke-linejoin="miter"> 
 <path d=" M  -5.22293 2.34435 L  0.29999 0.0 L  -5.22293 -2.34435 Z  " /> 
 </g> 
 </g> 
 </g> 
 </g> 
 </g> 
 </g> 
 </g> 
 </g> 
 <g> 
 <g stroke="rgb(0.0%,0.0%,0.0%)"> 
 <g fill="rgb(0.0%,0.0%,0.0%)"> 
 <path d=" M  2.0 -56.90549 L  -2.0 -56.90549  " style="fill:none"/> 
 <g> 
 <g> 
 <g transform="matrix(1.0,0.0,0.0,1.0,-22.53322,-59.06657)"> 
 <g fill="rgb(0.0%,0.0%,0.0%)"> 
 <text style="stroke:none" transform="scale(1,-1) translate(8.50012,0)" text-anchor="middle"  font-size="10"> 
 <tspan font-family="cmsy" font-size="8">- </tspan><tspan font-family="cmr" font-size="8">2</tspan><tspan font-family="cmmi" font-size="8">.</tspan></text> 
</g> 
 </g> 
 </g> 
 </g> 
 </g> 
 </g> 
 </g> 
 <g> 
 <g stroke="rgb(0.0%,0.0%,0.0%)"> 
 <g fill="rgb(0.0%,0.0%,0.0%)"> 
 <path d=" M  2.0 -42.67911 L  -2.0 -42.67911  " style="fill:none"/> 
 <g> 
 <g> 
 <g transform="matrix(1.0,0.0,0.0,1.0,-26.78328,-44.8402)"> 
 <g fill="rgb(0.0%,0.0%,0.0%)"> 
 <text style="stroke:none" transform="scale(1,-1) translate(10.62515,0)" text-anchor="middle"  font-size="10"> 
 <tspan font-family="cmsy" font-size="8">- </tspan><tspan font-family="cmr" font-size="8">1</tspan><tspan font-family="cmmi" font-size="8">.</tspan><tspan font-family="cmr" font-size="8">5</tspan></text> 
</g> 
 </g> 
 </g> 
 </g> 
 </g> 
 </g> 
 </g> 
 <g> 
 <g stroke="rgb(0.0%,0.0%,0.0%)"> 
 <g fill="rgb(0.0%,0.0%,0.0%)"> 
 <path d=" M  2.0 -28.45274 L  -2.0 -28.45274  " style="fill:none"/> 
 <g> 
 <g> 
 <g transform="matrix(1.0,0.0,0.0,1.0,-22.53322,-30.61383)"> 
 <g fill="rgb(0.0%,0.0%,0.0%)"> 
 <text style="stroke:none" transform="scale(1,-1) translate(8.50012,0)" text-anchor="middle"  font-size="10"> 
 <tspan font-family="cmsy" font-size="8">- </tspan><tspan font-family="cmr" font-size="8">1</tspan><tspan font-family="cmmi" font-size="8">.</tspan></text> 
</g> 
 </g> 
 </g> 
 </g> 
 </g> 
 </g> 
 </g> 
 <g> 
 <g stroke="rgb(0.0%,0.0%,0.0%)"> 
 <g fill="rgb(0.0%,0.0%,0.0%)"> 
 <path d=" M  2.0 -14.22636 L  -2.0 -14.22636  " style="fill:none"/> 
 <g> 
 <g> 
 <g transform="matrix(1.0,0.0,0.0,1.0,-26.78328,-16.38745)"> 
 <g fill="rgb(0.0%,0.0%,0.0%)"> 
 <text style="stroke:none" transform="scale(1,-1) translate(10.62515,0)" text-anchor="middle"  font-size="10"> 
 <tspan font-family="cmsy" font-size="8">- </tspan><tspan font-family="cmr" font-size="8">0</tspan><tspan font-family="cmmi" font-size="8">.</tspan><tspan font-family="cmr" font-size="8">5</tspan></text> 
</g> 
 </g> 
 </g> 
 </g> 
 </g> 
 </g> 
 </g> 
 <g> 
 <g stroke="rgb(0.0%,0.0%,0.0%)"> 
 <g fill="rgb(0.0%,0.0%,0.0%)"> 
 <path d=" M  2.0 14.22636 L  -2.0 14.22636  " style="fill:none"/> 
 <g> 
 <g> 
 <g transform="matrix(1.0,0.0,0.0,1.0,-16.39424,11.64859)"> 
 <g fill="rgb(0.0%,0.0%,0.0%)"> 
 <text style="stroke:none" transform="scale(1,-1) translate(5.43063,0)" text-anchor="middle"  font-size="10"> 
<tspan font-family="cmr" font-size="8">0</tspan><tspan font-family="cmmi" font-size="8">.</tspan><tspan font-family="cmr" font-size="8">5</tspan></text> 
</g> 
 </g> 
 </g> 
 </g> 
 </g> 
 </g> 
 </g> 
 <g> 
 <g stroke="rgb(0.0%,0.0%,0.0%)"> 
 <g fill="rgb(0.0%,0.0%,0.0%)"> 
 <path d=" M  2.0 28.45274 L  -2.0 28.45274  " style="fill:none"/> 
 <g> 
 <g> 
 <g transform="matrix(1.0,0.0,0.0,1.0,-12.14418,25.87497)"> 
 <g fill="rgb(0.0%,0.0%,0.0%)"> 
 <text style="stroke:none" transform="scale(1,-1) translate(3.3056,0)" text-anchor="middle"  font-size="10"> 
<tspan font-family="cmr" font-size="8">1</tspan><tspan font-family="cmmi" font-size="8">.</tspan></text> 
</g> 
 </g> 
 </g> 
 </g> 
 </g> 
 </g> 
 </g> 
 <g> 
 <g stroke="rgb(0.0%,0.0%,0.0%)"> 
 <g fill="rgb(0.0%,0.0%,0.0%)"> 
 <path d=" M  2.0 42.67911 L  -2.0 42.67911  " style="fill:none"/> 
 <g> 
 <g> 
 <g transform="matrix(1.0,0.0,0.0,1.0,-16.39424,40.10133)"> 
 <g fill="rgb(0.0%,0.0%,0.0%)"> 
 <text style="stroke:none" transform="scale(1,-1) translate(5.43063,0)" text-anchor="middle"  font-size="10"> 
<tspan font-family="cmr" font-size="8">1</tspan><tspan font-family="cmmi" font-size="8">.</tspan><tspan font-family="cmr" font-size="8">5</tspan></text> 
</g> 
 </g> 
 </g> 
 </g> 
 </g> 
 </g> 
 </g> 
 <g> 
 <g stroke="rgb(0.0%,0.0%,0.0%)"> 
 <g fill="rgb(0.0%,0.0%,0.0%)"> 
 <path d=" M  2.0 56.90549 L  -2.0 56.90549  " style="fill:none"/> 
 <g> 
 <g> 
 <g transform="matrix(1.0,0.0,0.0,1.0,-12.14418,54.32771)"> 
 <g fill="rgb(0.0%,0.0%,0.0%)"> 
 <text style="stroke:none" transform="scale(1,-1) translate(3.3056,0)" text-anchor="middle"  font-size="10"> 
<tspan font-family="cmr" font-size="8">2</tspan><tspan font-family="cmmi" font-size="8">.</tspan></text> 
</g> 
 </g> 
 </g> 
 </g> 
 </g> 
 </g> 
 </g> 
 <g> 
 <g stroke="rgb(0.0%,0.0%,0.0%)"> 
 <g fill="rgb(0.0%,0.0%,0.0%)"> 
 <path d=" M  2.0 71.13185 L  -2.0 71.13185  " style="fill:none"/> 
 <g> 
 <g> 
 <g transform="matrix(1.0,0.0,0.0,1.0,-16.39424,68.55408)"> 
 <g fill="rgb(0.0%,0.0%,0.0%)"> 
 <text style="stroke:none" transform="scale(1,-1) translate(5.43063,0)" text-anchor="middle"  font-size="10"> 
<tspan font-family="cmr" font-size="8">2</tspan><tspan font-family="cmmi" font-size="8">.</tspan><tspan font-family="cmr" font-size="8">5</tspan></text> 
</g> 
 </g> 
 </g> 
 </g> 
 </g> 
 </g> 
 </g> 
 <g> 
 <g stroke="rgb(0.0%,0.0%,0.0%)"> 
 <g fill="rgb(0.0%,0.0%,0.0%)"> 
 <path d=" M  2.0 85.35823 L  -2.0 85.35823  " style="fill:none"/> 
 <g> 
 <g> 
 <g transform="matrix(1.0,0.0,0.0,1.0,-12.14418,82.78046)"> 
 <g fill="rgb(0.0%,0.0%,0.0%)"> 
 <text style="stroke:none" transform="scale(1,-1) translate(3.3056,0)" text-anchor="middle"  font-size="10"> 
<tspan font-family="cmr" font-size="8">3</tspan><tspan font-family="cmmi" font-size="8">.</tspan></text> 
</g> 
 </g> 
 </g> 
 </g> 
 </g> 
 </g> 
 </g> 
 <g> 
 <g stroke="rgb(0.0%,0.0%,0.0%)"> 
 <g fill="rgb(0.0%,0.0%,0.0%)"> 
 <path d=" M  0.0 -10.0  " style="fill:none"/> 
 <g> 
 <g> 
 <g transform="matrix(1.0,0.0,0.0,1.0,3.53297,-12.57777)"> 
 <g fill="rgb(0.0%,0.0%,0.0%)"> 
 <text style="stroke:none" transform="scale(1,-1) translate(2.12503,0)" text-anchor="middle"  font-size="10"> 
<tspan font-family="cmr" font-size="8">0</tspan></text> 
</g> 
 </g> 
 </g> 
 </g> 
 </g> 
 </g> 
 </g> 
 <clipPath id="pgfcp1"> <path d=" M  -85.35823 -56.90549 M  -85.35823 -56.90549 L  -85.35823 96.73915 L  119.50143 96.73915 L  119.50143 -56.90549 Z M  119.50143 96.73915  "/> 
</clipPath> 
 <g clip-path="url(#pgfcp1)"> 
 <g> 
 <g stroke-width="1.2pt"> 
 <path d=" M  -85.35823 28.45274 L  -76.82275 28.45274 L  -68.28728 28.45274 L  -59.7518 28.45274 L  -51.21632 28.45274 L  -42.68085 28.45274 L  -34.14537 28.45274 L  -25.6099 28.45274 L  -17.07442 28.45274 L  -8.53894 28.45274 L  -0.00346 28.45274 L  8.532 28.45274 L  17.06747 28.45274 L  25.60295 28.45274 L  34.13843 28.45274 L  42.6739 28.45274 L  51.20938 28.45274 L  59.74484 28.45274 L  68.28032 28.45274 L  76.8158 28.45274 L  85.35127 28.45274 L  93.88675 28.45274 L  102.42223 28.45274 L  110.9577 28.45274 L  119.49318 28.45274  " style="fill:none"/> 
 </g> 
 </g> 
 <g> 
 <g stroke-width="1.2pt"> 
 <path d=" M  -85.35823 -68.2864 L  -76.82275 -61.45845 L  -68.28728 -54.62964 L  -59.7518 -47.8017 L  -51.21632 -40.97289 L  -42.68085 -34.1445 L  -34.14537 -27.31612 L  -25.6099 -20.48773 L  -17.07442 -13.66023 L  -8.53894 -6.8314 L  -0.00346 -0.00304 L  8.532 6.8262 L  17.06747 13.65459 L  25.60295 20.4821 L  34.13843 27.31091 L  42.6739 34.13972 L  51.20938 40.96767 L  59.74484 47.79648 L  68.28032 54.62444 L  76.8158 61.45325 L  85.35127 68.28163 L  93.88675 75.11 L  102.42223 81.93839 L  110.9577 88.7659 L  119.49318 95.59471  " style="fill:none"/> 
 </g> 
 </g> 
 <g> 
 <g stroke-width="1.2pt"> 
 <path d=" M  -85.35823 85.35823 L  -76.82275 76.82275 L  -68.28728 68.28728 L  -59.7518 59.7518 L  -51.21632 51.21632 L  -42.68085 42.68085 L  -34.14537 34.14537 L  -25.6099 25.6099 L  -17.07442 17.07442 L  -8.53894 8.53894 L  -0.00346 0.00346 L  8.532 -8.532 L  17.06747 -17.06747 L  25.60295 -25.60295 L  34.13843 -34.13843 L  42.6739 -42.6739 L  51.20938 -51.20938 L  59.74484 -59.74484 L  68.28032 -68.28032 L  76.8158 -76.8158 L  85.35127 -85.35127 L  93.88675 -93.88675 L  102.42223 -102.42223 L  110.9577 -110.9577 L  119.49318 -119.49318  " style="fill:none"/> 
 </g> 
 </g> 
 <g> 
 <g stroke="rgb(0.0%,0.0%,0.0%)"> 
 <g fill="rgb(0.0%,0.0%,0.0%)"> 
 <path d=" M  -96.17041 27.03001  " style="fill:none"/> 
 <g> 
 <g> 
 <g transform="matrix(1.0,0.0,0.0,1.0,-98.51245,25.28001)"> 
 <g fill="rgb(0.0%,0.0%,0.0%)"> 
 <text style="stroke:none" transform="scale(1,-1) translate(2.34204,0)" text-anchor="middle"  font-size="7"> 
<tspan font-family="cmmi" font-size="7">f</tspan></text> 
</g> 
 </g> 
 </g> 
 </g> 
 </g> 
 </g> 
 </g> 
 <g> 
 <g fill="rgb(27.00043%,27.00043%,25.99945%)"> 
 <path d=" M  0.0 0.0 M  1.5 0.0 C  1.5 0.82843 0.82843 1.5 0.0 1.5 C  -0.82843 1.5 -1.5 0.82843 -1.5 0.0 C  -1.5 -0.82843 -0.82843 -1.5 0.0 -1.5 C  0.82843 -1.5 1.5 -0.82843 1.5 0.0 Z M  0.0 0.0  " /> 
 </g> 
 </g> 
 <g> 
 <g stroke="rgb(27.00043%,27.00043%,25.99945%)"> 
 <g fill="rgb(27.00043%,27.00043%,25.99945%)"> 
 <path d=" M  1.53647 3.24356  " style="fill:none"/> 
 <g> 
 <g> 
 <g transform="matrix(1.0,0.0,0.0,1.0,-1.65503,0.8519)"> 
 <g fill="rgb(27.00043%,27.00043%,25.99945%)"> 
 <text style="stroke:none" transform="scale(1,-1) translate(3.1915,0)" text-anchor="middle"  font-size="7"> 
<tspan font-family="cmmi" font-size="7">B</tspan></text> 
</g> 
 </g> 
 </g> 
 </g> 
 </g> 
 </g> 
 </g> 
 <g> 
 <g fill="rgb(0.0%,0.0%,100.0%)"> 
 <path d=" M  71.13185 56.90549 M  73.63185 56.90549 C  73.63185 58.28621 72.51257 59.40549 71.13185 59.40549 C  69.75113 59.40549 68.63185 58.28621 68.63185 56.90549 C  68.63185 55.52477 69.75113 54.40549 71.13185 54.40549 C  72.51257 54.40549 73.63185 55.52477 73.63185 56.90549 Z M  71.13185 56.90549  " /> 
 </g> 
 </g> 
 <g> 
 <g stroke="rgb(0.0%,0.0%,100.0%)"> 
 <g fill="rgb(0.0%,0.0%,100.0%)"> 
 <path d=" M  72.75385 60.88884  " style="fill:none"/> 
 <g> 
 <g> 
 <g transform="matrix(1.0,0.0,0.0,1.0,69.74689,58.49718)"> 
 <g fill="rgb(0.0%,0.0%,100.0%)"> 
 <text style="stroke:none" transform="scale(1,-1) translate(3.00696,0)" text-anchor="middle"  font-size="7"> 
<tspan font-family="cmmi" font-size="7">A</tspan></text> 
</g> 
 </g> 
 </g> 
 </g> 
 </g> 
 </g> 
 </g> 
 <g> 
 <g stroke="rgb(0.0%,0.0%,0.0%)"> 
 <g fill="rgb(0.0%,0.0%,0.0%)"> 
 <path d=" M  -56.3363 -46.3781  " style="fill:none"/> 
 <g> 
 <g> 
 <g transform="matrix(1.0,0.0,0.0,1.0,-58.41252,-47.2045)"> 
 <g fill="rgb(0.0%,0.0%,0.0%)"> 
 <text style="stroke:none" transform="scale(1,-1) translate(2.07622,0)" text-anchor="middle"  font-size="7"> 
<tspan font-family="cmmi" font-size="7">g</tspan></text> 
</g> 
 </g> 
 </g> 
 </g> 
 </g> 
 </g> 
 </g> 
 <g> 
 <g fill="rgb(0.0%,0.0%,100.0%)"> 
 <path d=" M  -42.67911 42.67911 M  -40.17911 42.67911 C  -40.17911 44.05983 -41.29839 45.17911 -42.67911 45.17911 C  -44.05983 45.17911 -45.17911 44.05983 -45.17911 42.67911 C  -45.17911 41.29839 -44.05983 40.17911 -42.67911 40.17911 C  -41.29839 40.17911 -40.17911 41.29839 -40.17911 42.67911 Z M  -42.67911 42.67911  " /> 
 </g> 
 </g> 
 <g> 
 <g stroke="rgb(0.0%,0.0%,100.0%)"> 
 <g fill="rgb(0.0%,0.0%,100.0%)"> 
 <path d=" M  -41.14264 46.80487  " style="fill:none"/> 
 <g> 
 <g> 
 <g transform="matrix(1.0,0.0,0.0,1.0,-41.14264,46.80487)"> 
 <g fill="rgb(0.0%,0.0%,100.0%)"> 
 <text style="stroke:none" transform="scale(1,-1) translate(0.0,0)" text-anchor="middle"  font-size="7"> 
</text> 
</g> 
 </g> 
 </g> 
 </g> 
 </g> 
 </g> 
 </g> 
 <g> 
 <g stroke="rgb(0.0%,0.0%,0.0%)"> 
 <g fill="rgb(0.0%,0.0%,0.0%)"> 
 <path d=" M  -92.18704 95.1458  " style="fill:none"/> 
 <g> 
 <g> 
 <g transform="matrix(1.0,0.0,0.0,1.0,-94.52791,92.71526)"> 
 <g fill="rgb(0.0%,0.0%,0.0%)"> 
 <text style="stroke:none" transform="scale(1,-1) translate(2.34087,0)" text-anchor="middle"  font-size="7"> 
<tspan font-family="cmmi" font-size="7">h</tspan></text> 
</g> 
 </g> 
 </g> 
 </g> 
 </g> 
 </g> 
 </g> 
 </g> 
 </g> 
 </g> 
 </g> 
 </g> 
 </g> 
 </g> 
 </g> 
 
                                                               </g> 
</svg>

<?xml-stylesheet href="TE_export636340846059457774.css" type="text/css"?>
<svg xmlns="http://www.w3.org/2000/svg" width="273.7" height="213.6" viewBox="-85.6 -63.2 205.3 160.2">
  <g stroke-linejoin="round" transform="matrix(1 0 0 -1 0 33.7)" stroke-linecap="round" stroke-width=".5" stroke="#000">
    <path d="M-85.4-57h204.9M-85.4-42.6h204.9M-85.4-28.5h204.9M-85.4-14.2h204.9M-85.4 0h204.9M-85.4 14.2h204.9M-85.4 28.5h204.9M-85.4 42.7h204.9M-85.4 56.9h204.9M-85.4 71.1h204.9M-85.4 85.4h204.9M-85.4-57V96.7M-71-56.9V96.7M-57-56.9V96.7m14.2-153.6V96.7m14.2-153.6V96.7m14.3-153.6V96.7M0-56.9V96.7M14.2-56.9V96.7M28.5-56.9V96.7M42.7-56.9V96.7M56.9-56.9V96.7M71.1-56.9V96.7M85.4-56.9V96.7M99.6-56.9V96.7m14.2-153.6V96.7" fill="none" stroke="#BFBFBF"/>
    <path d="M-85.4 0h204" fill="none"/>
    <path d="M113.5 2.3L119 0l-5.5-2.3z" stroke-linejoin="miter"/>
    <path d="M0-57V96" fill="none"/>
    <path d="M-2.3 90.7L0 96.2l2.3-5.5z" stroke-linejoin="miter"/>
    <path d="M2-57h-4" fill="none"/>
    <text transform="matrix(1 0 0 -1 -14 -59)" text-anchor="middle" font-size="10" stroke="none">
      <tspan font-family="cmsy" font-size="8">- </tspan><tspan font-family="cmr" font-size="8">2</tspan><tspan font-family="cmmi" font-size="8">.</tspan>
    </text>
    <path d="M2-42.7h-4" fill="none"/>
    <text transform="matrix(1 0 0 -1 -16.2 -44.8)" text-anchor="middle" font-size="10" stroke="none">
      <tspan font-family="cmsy" font-size="8">- </tspan><tspan font-family="cmr" font-size="8">1</tspan><tspan font-family="cmmi" font-size="8">.</tspan><tspan font-family="cmr" font-size="8">5</tspan>
    </text>
    <path d="M2-28.5h-4" fill="none"/>
    <text transform="matrix(1 0 0 -1 -14 -30.6)" text-anchor="middle" font-size="10" stroke="none">
      <tspan font-family="cmsy" font-size="8">- </tspan><tspan font-family="cmr" font-size="8">1</tspan><tspan font-family="cmmi" font-size="8">.</tspan>
    </text>
    <path d="M2-14.2h-4" fill="none"/>
    <text transform="matrix(1 0 0 -1 -16.2 -16.4)" text-anchor="middle" font-size="10" stroke="none">
      <tspan font-family="cmsy" font-size="8">- </tspan><tspan font-family="cmr" font-size="8">0</tspan><tspan font-family="cmmi" font-size="8">.</tspan><tspan font-family="cmr" font-size="8">5</tspan>
    </text>
    <path d="M2 14.2h-4" fill="none"/>
    <text transform="matrix(1 0 0 -1 -11 11.6)" text-anchor="middle" font-size="10" stroke="none">
      <tspan font-family="cmr" font-size="8">0</tspan><tspan font-family="cmmi" font-size="8">.</tspan><tspan font-family="cmr" font-size="8">5</tspan>
    </text>
    <path d="M2 28.5h-4" fill="none"/>
    <text transform="matrix(1 0 0 -1 -8.8 25.9)" text-anchor="middle" font-size="10" stroke="none">
      <tspan font-family="cmr" font-size="8">1</tspan><tspan font-family="cmmi" font-size="8">.</tspan>
    </text>
    <g>
      <path d="M2 42.7h-4" fill="none"/>
      <text transform="matrix(1 0 0 -1 -11 40.1)" text-anchor="middle" font-size="10" stroke="none">
        <tspan font-family="cmr" font-size="8">1</tspan><tspan font-family="cmmi" font-size="8">.</tspan><tspan font-family="cmr" font-size="8">5</tspan>
      </text>
    </g>
    <g>
      <path d="M2 57h-4" fill="none"/>
      <text transform="matrix(1 0 0 -1 -8.8 54.3)" text-anchor="middle" font-size="10" stroke="none">
        <tspan font-family="cmr" font-size="8">2</tspan><tspan font-family="cmmi" font-size="8">.</tspan>
      </text>
    </g>
    <g>
      <path d="M2 71.1h-4" fill="none"/>
      <text transform="matrix(1 0 0 -1 -11 68.6)" text-anchor="middle" font-size="10" stroke="none">
        <tspan font-family="cmr" font-size="8">2</tspan><tspan font-family="cmmi" font-size="8">.</tspan><tspan font-family="cmr" font-size="8">5</tspan>
      </text>
    </g>
    <g>
      <path d="M2 85.4h-4" fill="none"/>
      <text transform="matrix(1 0 0 -1 -8.8 82.8)" text-anchor="middle" font-size="10" stroke="none">
        <tspan font-family="cmr" font-size="8">3</tspan><tspan font-family="cmmi" font-size="8">.</tspan>
      </text>
    </g>
    <g>
      <text transform="matrix(1 0 0 -1 5.7 -12.6)" text-anchor="middle" font-size="10" stroke="none">
        <tspan font-family="cmr" font-size="8">0</tspan>
      </text>
    </g>
    <clipPath id="a">
      <path d="M-85.4-57V96.8h204.9V-56.9zM119.5 96.8"/>
    </clipPath>
    <g clip-path="url(#a)">
      <path d="M-85.4 28.5H119.5M-85.4-68.3l8.6 6.8 8.5 6.9 8.5 6.8 8.6 6.8 8.5 6.9 8.6 6.8 8.5 6.8 8.5 6.8 8.6 6.9L0 0l8.5 6.8 8.6 6.9 8.5 6.8 8.5 6.8 8.6 6.8 8.5 6.9 8.5 6.8 8.6 6.8 8.5 6.9 8.6 6.8 8.5 6.8 8.5 6.8 8.6 6.9 8.5 6.8M-85.4 85.4l8.6-8.6 8.5-8.5 8.5-8.5 8.6-8.6 8.5-8.5L-34 34l8.5-8.5 8.5-8.5 8.6-8.6L0 0l8.5-8.5 8.6-8.6 8.5-8.5 8.5-8.5 8.6-8.6 8.5-8.5 8.5-8.5 8.6-8.6 8.5-8.5 8.6-8.6 8.5-8.5 8.5-8.5 8.6-8.6 8.5-8.5" fill="none" stroke-width="1.6"/>
      <text transform="matrix(1 0 0 -1 -96.2 25.3)" text-anchor="middle" font-size="7" stroke="none">
        <tspan font-family="cmmi">f</tspan>
      </text>
      <path d="M1.5 0a1.5 1.5 0 1 1-3 0 1.5 1.5 0 0 1 3 0zM0 0" fill="#454542"/>
      <text transform="matrix(1 0 0 -1 1.5 .9)" text-anchor="middle" font-size="7" stroke="none" fill="#454542">
        <tspan font-family="cmmi">B</tspan>
      </text>
      <path d="M73.6 57a2.5 2.5 0 1 1-5 0 2.5 2.5 0 0 1 5 0zm-2.5 0" fill="#00F"/>
      <text transform="matrix(1 0 0 -1 72.8 58.5)" text-anchor="middle" font-size="7" stroke="none" fill="#00F">
        <tspan font-family="cmmi">A</tspan>
      </text>
      <text transform="matrix(1 0 0 -1 -56.3 -47.2)" text-anchor="middle" font-size="7" stroke="none">
        <tspan font-family="cmmi">g</tspan>
      </text>
      <path d="M-40.2 42.7a2.5 2.5 0 1 1-5 0 2.5 2.5 0 0 1 5 0zm-2.5 0" fill="#00F"/>
      <text transform="matrix(1 0 0 -1 -41.1 46.8)" text-anchor="middle" font-size="7" stroke="none" fill="#00F">
        
      </text>
      <text transform="matrix(1 0 0 -1 -92.2 92.7)" text-anchor="middle" font-size="7" stroke="none">
        <tspan font-family="cmmi">h</tspan>
      </text>
    </g>
  </g>
</svg>
